assets/img/twitter-logo-button.svg

<?xml version="1.0" encoding="UTF-8"?>
<svg width="40px" height="40px" viewBox="0 0 40 40" version="1.1" xmlns="http://www.w3.org/2000/svg" xmlns:xlink="http://www.w3.org/1999/xlink">
    <!-- Generator: Sketch 50.2 (55047) - http://www.bohemiancoding.com/sketch -->
    <title>twitter-logo-button</title>
    <desc>Created with Sketch.</desc>
    <defs></defs>
    <g id="Page-1" stroke="none" stroke-width="1" fill="none" fill-rule="evenodd">
        <g id="Desktop-HD" transform="translate(-1346.000000, -4262.000000)" fill="#CDC1E1" fill-rule="nonzero">
            <g id="last-section" transform="translate(50.000000, 2869.000000)">
                <g id="Footer" transform="translate(4.000000, 1393.000000)">
                    <g id="twitter-logo-button" transform="translate(1292.000000, 0.000000)">
                        <path d="M20,0 C8.97204544,0 0,8.97204544 0,20 C0,31.027149 8.97204544,40 20,40 C31.027149,40 40,31.027149 40,20 C40,8.97204544 31.0287602,0 20,0 Z M28.9220978,15.4225409 C28.9309595,15.6207202 28.9357931,15.8205108 28.9357931,16.0203013 C28.9357931,22.1034399 24.3067752,29.1154435 15.8374285,29.1154435 C13.2377346,29.1154435 10.8176911,28.3557561 8.78111657,27.0490615 C9.14122291,27.0917586 9.50777411,27.11351 9.87915895,27.11351 C12.0365746,27.11351 14.0207847,26.3771852 15.596552,25.1429952 C13.5825344,25.1059373 11.881898,23.7750745 11.2962217,21.945541 C11.5765729,21.998711 11.8657859,22.0285185 12.1614436,22.0285185 C12.5811649,22.0285185 12.9888021,21.9737372 13.3746878,21.8682027 C11.2688311,21.4460646 9.68259083,19.585918 9.68259083,17.3543865 C9.68259083,17.335052 9.68259083,17.3149118 9.68339644,17.2963828 C10.3037138,17.640377 11.0134536,17.8482236 11.7675018,17.8715862 C10.5333119,17.0474503 9.72045436,15.637638 9.72045436,14.0409248 C9.72045436,13.1966487 9.94682994,12.4055426 10.3431886,11.7256102 C12.6125836,14.5113993 16.0058004,16.3433497 19.8308225,16.5366954 C19.751873,16.1991461 19.7123983,15.848707 19.7123983,15.4869894 C19.7123983,12.9452993 21.7731411,10.8837509 24.3148312,10.8837509 C25.6392492,10.8837509 26.8339644,11.4428422 27.6750181,12.337066 C28.7247241,12.1308306 29.7075646,11.7489729 30.5993716,11.219689 C30.2529606,12.2951744 29.5254975,13.1966487 28.5724644,13.7670184 C29.5045517,13.6558447 30.3939418,13.4093289 31.2164666,13.0427777 C30.6025941,13.9643922 29.8219608,14.7756384 28.9220978,15.4225409 Z" id="Shape"></path>
                    </g>
                </g>
            </g>
        </g>
    </g>
</svg>

<svg width="40" height="40" viewBox="0 0 40 40" xmlns="http://www.w3.org/2000/svg"><title>twitter-logo-button</title><path d="M20 0C8.972 0 0 8.972 0 20c0 11.027 8.972 20 20 20 11.027 0 20-8.973 20-20C40 8.972 31.029 0 20 0zm8.922 15.423c.009.198.014.398.014.597 0 6.083-4.63 13.095-13.099 13.095-2.6 0-5.02-.76-7.056-2.066a9.24 9.24 0 0 0 6.815-1.906 4.608 4.608 0 0 1-4.3-3.197 4.64 4.64 0 0 0 2.079-.078 4.604 4.604 0 0 1-3.692-4.514v-.058c.62.344 1.33.552 2.085.576A4.6 4.6 0 0 1 9.72 14.04c0-.844.227-1.635.623-2.315a13.07 13.07 0 0 0 9.488 4.81 4.598 4.598 0 0 1-.119-1.049 4.603 4.603 0 0 1 7.963-3.15 9.188 9.188 0 0 0 2.924-1.117 4.624 4.624 0 0 1-2.027 2.547 9.152 9.152 0 0 0 2.644-.724 9.26 9.26 0 0 1-2.294 2.38z" fill="#CDC1E1"/></svg>
